X: 41971
T: Wallop The Potlid
R: jig
M: 6/8
K: Gmajor
BGG AGE|DEG AGA|ABB cBc|d2g fdc|
BGG AGE|D2G AGA|ABB cAF|AGF Gdc:|
|:~B3 cBc|d2g fdc|~B3 cBc|dgf g2a|
bgg age|dge dBA|~G3 AGA|BGF Gdc:|

